Catalina-light/actions/16/draw-connector.svg

<svg width="16" height="16" viewBox="0 0 16 16" xmlns="http://www.w3.org/2000/svg">
<defs>
<style id="current-color-scheme" type="text/css">.ColorScheme-Text { color:#5c616c; } .ColorScheme-Highlight { color:#5294e2; }</style>
</defs>
<path class="ColorScheme-Text" d="m11 0v0.011719 1.543c-0.363 0.021-0.723 0.0411-1.1152 0.0781-1.2789 0.1228-2.6619 0.329-3.8848 0.7305v-0.3633h-4v4h0.127c-0.5694 1.3541-0.92 2.9317-1.1622 4.391-0.03542 0.213-0.05555 0.401-0.08589 0.609h-0.87891v0.012 3.988 0.012h1.5 2.5v-0.012-1.543c0.3633-0.021 0.7235-0.041 1.1152-0.078 1.2789-0.123 2.6619-0.329 3.8848-0.731v0.364h4v-4.0003h-0.127c0.569-1.3541 0.92-2.9317 1.162-4.3906 0.035-0.2136 0.056-0.4019 0.086-0.6094h0.879v-0.0117-3.9883-0.0117h-1.5-2.5zm0 2.5547v1.4453 0.0117h2.111c-0.023 0.1535-0.036 0.2905-0.062 0.4473-0.261 1.5691-0.698 3.2566-1.305 4.5527h-2.744v2.5503c-1.1634 0.424-2.6276 0.693-3.9805 0.823-0.3579 0.034-0.6855 0.052-1.0195 0.072v-1.445-0.012h-2.1113c0.0231-0.154 0.0365-0.29 0.0625-0.447 0.2605-1.5694 0.698-3.2569 1.3047-4.553h2.7441v-2.5508c1.1634-0.4239 2.6276-0.6925 3.9805-0.8222 0.3575-0.034 0.6855-0.0523 1.0195-0.0723z" fill="#363636"/>
</svg>

<svg xmlns="http://www.w3.org/2000/svg" width="16" height="16" viewBox="0 0 16 16">
 <defs>
  <style id="current-color-scheme" type="text/css">
   .ColorScheme-Text { color:#5c616c; } .ColorScheme-Highlight { color:#5294e2; }
  </style>
 </defs>
 <path style="fill:currentColor" class="ColorScheme-Text" d="m 11,0 0,0.011719 0,1.543 c -0.363,0.021 -0.723,0.0411 -1.1152,0.0781 -1.2789,0.1228 -2.6619,0.329 -3.8848,0.7305 l 0,-0.3633 -4,0 0,4 0.127,0 c -0.5694,1.3541 -0.92,2.9317 -1.1622,4.391 -0.03542,0.213 -0.05555,0.401 -0.08589,0.609 l -0.87891,0 0,0.012 0,3.988 0,0.012 1.5,0 2.5,0 0,-0.012 0,-1.543 c 0.3633,-0.021 0.7235,-0.041 1.1152,-0.078 1.2789,-0.123 2.6619,-0.329 3.8848,-0.731 l 0,0.364 4,0 0,-4.0003 -0.127,0 c 0.569,-1.3541 0.92,-2.9317 1.162,-4.3906 0.035,-0.2136 0.056,-0.4019 0.086,-0.6094 l 0.879,0 0,-0.0117 0,-3.9883 0,-0.0117 -1.5,0 -2.5,0 z M 11,2.5547 11,4 l 0,0.0117 2.111,0 C 13.088,4.1652 13.075,4.3022 13.049,4.459 12.788,6.0281 12.351,7.7156 11.744,9.0117 L 9,9.0117 9,11.562 C 7.8366,11.986 6.3724,12.255 5.0195,12.385 4.6616,12.419 4.334,12.437 4,12.457 L 4,11.012 4,11 1.8887,11 C 1.9118,10.846 1.9252,10.71 1.9512,10.553 2.2117,8.9836 2.6492,7.2961 3.2559,6 L 6,6 6,3.4492 C 7.1634,3.0253 8.6276,2.7567 9.9805,2.627 10.338,2.593 10.666,2.5747 11,2.5547 Z"/>
</svg>
